svgs/sharp-light/microchip-ai.svg

<svg xmlns="http://www.w3.org/2000/svg" viewBox="0 0 512 512"><!--! Font Awesome Pro 6.6.0 by @fontawesome - https://fontawesome.com License - https://fontawesome.com/license (Commercial License) Copyright 2024 Fonticons, Inc. --><path d="M176 0l0 16 0 48 64 0 0-48 0-16 32 0 0 16 0 48 64 0 0-48 0-16 32 0 0 16 0 48 48 0 32 0 0 32 0 48 48 0 16 0 0 32-16 0-48 0 0 64 48 0 16 0 0 32-16 0-48 0 0 64 48 0 16 0 0 32-16 0-48 0 0 48 0 32-32 0-48 0 0 48 0 16-32 0 0-16 0-48-64 0 0 48 0 16-32 0 0-16 0-48-64 0 0 48 0 16-32 0 0-16 0-48-48 0-32 0 0-32 0-48-48 0L0 368l0-32 16 0 48 0 0-64-48 0L0 272l0-32 16 0 48 0 0-64-48 0L0 176l0-32 16 0 48 0 0-48 0-32 32 0 48 0 0-48 0-16 32 0zM416 96L96 96l0 320 320 0 0-320zm-96 80l32 0 0 16 0 128 0 16-32 0 0-16 0-128 0-16zM135.9 336l2.2-5.7L160 272.8l0-.8 .3 0 32.7-85.7L197 176l22 0 3.9 10.3L255.7 272l.3 0 0 .8 21.9 57.5 2.2 5.7-34.3 0-12.2-32-51.3 0-12.2 32-34.3 0zM208 236.8L194.6 272l26.9 0L208 236.8z"/></svg>

<svg xmlns="http://www.w3.org/2000/svg" viewBox="0 0 512 512"><!--! Font Awesome Pro 6.4.0 by @fontawesome - https://fontawesome.com License - https://fontawesome.com/license (Commercial License) Copyright 2023 Fonticons, Inc. --><path d="M176 0V16 64h64V16 0h32V16 64h64V16 0h32V16 64h48 32V96v48h48 16v32H496 448v64h48 16v32H496 448v64h48 16v32H496 448v48 32H416 368v48 16H336V496 448H272v48 16H240V496 448H176v48 16H144V496 448H96 64V416 368H16 0V336H16 64V272H16 0V240H16 64V176H16 0V144H16 64V96 64H96h48V16 0h32zM416 96H96V416H416V96zm-96 80h32v16V320v16H320V320 192 176zM135.9 336l2.2-5.7L160 272.8V272h.3l32.7-85.7L197 176h22l3.9 10.3L255.7 272h.3v.8l21.9 57.5 2.2 5.7H245.9l-12.2-32H182.3l-12.2 32H135.9zm85.6-64L208 236.8 194.6 272h26.9z"/></svg>
